X:35
T:Reel de Pere Leon
M:2/2
L:1/8
K:G
ef|"G"g2 gf gedc|BGAc BG G2|B3 B cBAG|"D"FGAB A2 ef|
"G"g2 gf gedc|BGAc BG G2|B3 B cBAG|"D"FGAF "G"G2:|:
A2|"G"B3 B cBAG|BGBG "C"cB c2|"G" B3 B cBAG|"D"FGAB A
2 A2|
"G"B3 B cBAG|BGBG "C"cB c2|"G"B3 B cBAG|"D"FGAF "G"G2:||
